; Generated by Modular Orthodontic Wire Generator
; Date: 2025-10-05 00:51:01
; Wire Size: 0.018
; Arch Type: LOWER
; Total Wire Length: 85.32mm
; Wire Height Offset: 0.00mm
; Number of Bends: 164
; Feed Rate: 1000 mm/min
; Bend Speed: 500 mm/min
; Safety Height: 10.0mm
;
; Machine Commands:
; G0/G1 - Linear movement
; M3 - Clamp wire
; M4 - Release wire
; M5 - Bend wire
; M6 - Feed wire
;

; === INITIALIZATION ===
G21 ; Set units to millimeters
G90 ; Absolute positioning
G28 ; Home all axes
F1000 ; Set default feed rate
M117 Wire Bending Started

; === WIRE PREPARATION ===
G0 Z10.0 ; Move to safety height
G0 X10 Y0 Z10.0
G1 Z0 F500
M3 ; Clamp wire
G4 P500 ; Wait 0.5 seconds

; === BEND 1: 177.6° left ===
M6 S0.50 ; Feed wire 0.50mm
G4 P200 ; Wait for wire feed

; Position bending mechanism
G0 Z10.0 ; Safety height
G0 X17.60 Y7.99
G1 Z-21.02 F500

; Execute bend
M5 A177.6 R12.3 DL
G4 P1000 ; Wait for bend completion

; Return to safe position
G0 Z10.0

; === BEND 2: 179.3° left ===
M6 S0.51 ; Feed wire 0.51mm
G4 P200 ; Wait for wire feed

; Position bending mechanism
G0 Z10.0 ; Safety height
G0 X17.42 Y7.91
G1 Z-20.55 F500

; Execute bend
M5 A179.3 R43.4 DL
G4 P1000 ; Wait for bend completion

; Return to safe position
G0 Z10.0

; === BEND 3: 179.0° right ===
M6 S0.51 ; Feed wire 0.51mm
G4 P200 ; Wait for wire feed

; Position bending mechanism
G0 Z10.0 ; Safety height
G0 X17.23 Y7.84
G1 Z-20.08 F500

; Execute bend
M5 A179.0 R30.0 DR
G4 P1000 ; Wait for bend completion

; Return to safe position
G0 Z10.0

; === BEND 4: 177.3° right ===
M6 S0.51 ; Feed wire 0.51mm
G4 P200 ; Wait for wire feed

; Position bending mechanism
G0 Z10.0 ; Safety height
G0 X17.05 Y7.76
G1 Z-19.61 F500

; Execute bend
M5 A177.3 R10.8 DR
G4 P1000 ; Wait for bend completion

; Return to safe position
G0 Z10.0

; === BEND 5: 175.3° right ===
M6 S0.50 ; Feed wire 0.50mm
G4 P200 ; Wait for wire feed

; Position bending mechanism
G0 Z10.0 ; Safety height
G0 X16.88 Y7.71
G1 Z-19.14 F500

; Execute bend
M5 A175.3 R6.2 DR
G4 P1000 ; Wait for bend completion

; Return to safe position
G0 Z10.0

; === BEND 6: 173.0° right ===
M6 S0.51 ; Feed wire 0.51mm
G4 P200 ; Wait for wire feed

; Position bending mechanism
G0 Z10.0 ; Safety height
G0 X16.74 Y7.69
G1 Z-18.65 F500

; Execute bend
M5 A173.0 R4.2 DR
G4 P1000 ; Wait for bend completion

; Return to safe position
G0 Z10.0

; === BEND 7: 169.3° right ===
M6 S0.51 ; Feed wire 0.51mm
G4 P200 ; Wait for wire feed

; Position bending mechanism
G0 Z10.0 ; Safety height
G0 X16.65 Y7.71
G1 Z-18.15 F500

; Execute bend
M5 A169.3 R2.7 DR
G4 P1000 ; Wait for bend completion

; Return to safe position
G0 Z10.0

; === BEND 8: 169.5° right ===
M6 S0.51 ; Feed wire 0.51mm
G4 P200 ; Wait for wire feed

; Position bending mechanism
G0 Z10.0 ; Safety height
G0 X16.61 Y7.80
G1 Z-17.65 F500

; Execute bend
M5 A169.5 R2.8 DR
G4 P1000 ; Wait for bend completion

; Return to safe position
G0 Z10.0

; === BEND 9: 174.2° right ===
M6 S0.50 ; Feed wire 0.50mm
G4 P200 ; Wait for wire feed

; Position bending mechanism
G0 Z10.0 ; Safety height
G0 X16.65 Y7.95
G1 Z-17.17 F500

; Execute bend
M5 A174.2 R5.0 DR
G4 P1000 ; Wait for bend completion

; Return to safe position
G0 Z10.0

; === BEND 10: 177.8° right ===
M6 S0.51 ; Feed wire 0.51mm
G4 P200 ; Wait for wire feed

; Position bending mechanism
G0 Z10.0 ; Safety height
G0 X16.72 Y8.13
G1 Z-16.71 F500

; Execute bend
M5 A177.8 R13.2 DR
G4 P1000 ; Wait for bend completion

; Return to safe position
G0 Z10.0

; === BEND 11: 179.0° left ===
M6 S0.51 ; Feed wire 0.51mm
G4 P200 ; Wait for wire feed

; Position bending mechanism
G0 Z10.0 ; Safety height
G0 X16.80 Y8.33
G1 Z-16.24 F500

; Execute bend
M5 A179.0 R29.4 DL
G4 P1000 ; Wait for bend completion

; Return to safe position
G0 Z10.0

; === BEND 12: 175.4° left ===
M6 S0.50 ; Feed wire 0.50mm
G4 P200 ; Wait for wire feed

; Position bending mechanism
G0 Z10.0 ; Safety height
G0 X16.88 Y8.52
G1 Z-15.78 F500

; Execute bend
M5 A175.4 R6.3 DL
G4 P1000 ; Wait for bend completion

; Return to safe position
G0 Z10.0

; === BEND 13: 170.3° left ===
M6 S0.51 ; Feed wire 0.51mm
G4 P200 ; Wait for wire feed

; Position bending mechanism
G0 Z10.0 ; Safety height
G0 X16.93 Y8.69
G1 Z-15.30 F500

; Execute bend
M5 A170.3 R3.0 DL
G4 P1000 ; Wait for bend completion

; Return to safe position
G0 Z10.0

; === BEND 14: 164.4° left ===
M6 S0.51 ; Feed wire 0.51mm
G4 P200 ; Wait for wire feed

; Position bending mechanism
G0 Z10.0 ; Safety height
G0 X16.93 Y8.79
G1 Z-14.80 F500

; Execute bend
M5 A164.4 R1.9 DL
G4 P1000 ; Wait for bend completion

; Return to safe position
G0 Z10.0

; === BEND 15: 166.3° left ===
M6 S0.50 ; Feed wire 0.50mm
G4 P200 ; Wait for wire feed

; Position bending mechanism
G0 Z10.0 ; Safety height
G0 X16.84 Y8.79
G1 Z-14.31 F500

; Execute bend
M5 A166.3 R2.1 DL
G4 P1000 ; Wait for bend completion

; Return to safe position
G0 Z10.0

; === BEND 16: 172.3° left ===
M6 S0.51 ; Feed wire 0.51mm
G4 P200 ; Wait for wire feed

; Position bending mechanism
G0 Z10.0 ; Safety height
G0 X16.67 Y8.69
G1 Z-13.84 F500

; Execute bend
M5 A172.3 R3.7 DL
G4 P1000 ; Wait for bend completion

; Return to safe position
G0 Z10.0

; === BEND 17: 176.9° left ===
M6 S0.50 ; Feed wire 0.50mm
G4 P200 ; Wait for wire feed

; Position bending mechanism
G0 Z10.0 ; Safety height
G0 X16.47 Y8.55
G1 Z-13.40 F500

; Execute bend
M5 A176.9 R9.4 DL
G4 P1000 ; Wait for bend completion

; Return to safe position
G0 Z10.0

; === BEND 18: 179.2° right ===
M6 S0.51 ; Feed wire 0.51mm
G4 P200 ; Wait for wire feed

; Position bending mechanism
G0 Z10.0 ; Safety height
G0 X16.25 Y8.38
G1 Z-12.97 F500

; Execute bend
M5 A179.2 R37.6 DR
G4 P1000 ; Wait for bend completion

; Return to safe position
G0 Z10.0

; === BEND 19: 174.9° right ===
M6 S0.50 ; Feed wire 0.50mm
G4 P200 ; Wait for wire feed

; Position bending mechanism
G0 Z10.0 ; Safety height
G0 X16.04 Y8.22
G1 Z-12.54 F500

; Execute bend
M5 A174.9 R5.7 DR
G4 P1000 ; Wait for bend completion

; Return to safe position
G0 Z10.0

; === BEND 20: 168.8° right ===
M6 S0.51 ; Feed wire 0.51mm
G4 P200 ; Wait for wire feed

; Position bending mechanism
G0 Z10.0 ; Safety height
G0 X15.86 Y8.09
G1 Z-12.09 F500

; Execute bend
M5 A168.8 R2.6 DR
G4 P1000 ; Wait for bend completion

; Return to safe position
G0 Z10.0

; === BEND 21: 162.7° right ===
M6 S0.50 ; Feed wire 0.50mm
G4 P200 ; Wait for wire feed

; Position bending mechanism
G0 Z10.0 ; Safety height
G0 X15.73 Y8.04
G1 Z-11.61 F500

; Execute bend
M5 A162.7 R1.7 DR
G4 P1000 ; Wait for bend completion

; Return to safe position
G0 Z10.0

; === BEND 22: 164.1° right ===
M6 S0.51 ; Feed wire 0.51mm
G4 P200 ; Wait for wire feed

; Position bending mechanism
G0 Z10.0 ; Safety height
G0 X15.69 Y8.10
G1 Z-11.10 F500

; Execute bend
M5 A164.1 R1.8 DR
G4 P1000 ; Wait for bend completion

; Return to safe position
G0 Z10.0

; === BEND 23: 174.9° right ===
M6 S0.51 ; Feed wire 0.51mm
G4 P200 ; Wait for wire feed

; Position bending mechanism
G0 Z10.0 ; Safety height
G0 X15.74 Y8.27
G1 Z-10.63 F500

; Execute bend
M5 A174.9 R5.7 DR
G4 P1000 ; Wait for bend completion

; Return to safe position
G0 Z10.0

; === BEND 24: 175.0° left ===
M6 S0.51 ; Feed wire 0.51mm
G4 P200 ; Wait for wire feed

; Position bending mechanism
G0 Z10.0 ; Safety height
G0 X15.82 Y8.47
G1 Z-10.16 F500

; Execute bend
M5 A175.0 R5.8 DL
G4 P1000 ; Wait for bend completion

; Return to safe position
G0 Z10.0

; === BEND 25: 171.0° left ===
M6 S0.51 ; Feed wire 0.51mm
G4 P200 ; Wait for wire feed

; Position bending mechanism
G0 Z10.0 ; Safety height
G0 X15.89 Y8.63
G1 Z-9.68 F500

; Execute bend
M5 A171.0 R3.3 DL
G4 P1000 ; Wait for bend completion

; Return to safe position
G0 Z10.0

; === BEND 26: 171.3° left ===
M6 S0.51 ; Feed wire 0.51mm
G4 P200 ; Wait for wire feed

; Position bending mechanism
G0 Z10.0 ; Safety height
G0 X15.91 Y8.73
G1 Z-9.18 F500

; Execute bend
M5 A171.3 R3.3 DL
G4 P1000 ; Wait for bend completion

; Return to safe position
G0 Z10.0

; === BEND 27: 173.2° left ===
M6 S0.50 ; Feed wire 0.50mm
G4 P200 ; Wait for wire feed

; Position bending mechanism
G0 Z10.0 ; Safety height
G0 X15.90 Y8.76
G1 Z-8.68 F500

; Execute bend
M5 A173.2 R4.3 DL
G4 P1000 ; Wait for bend completion

; Return to safe position
G0 Z10.0

; === BEND 28: 175.8° left ===
M6 S0.51 ; Feed wire 0.51mm
G4 P200 ; Wait for wire feed

; Position bending mechanism
G0 Z10.0 ; Safety height
G0 X15.85 Y8.74
G1 Z-8.17 F500

; Execute bend
M5 A175.8 R6.9 DL
G4 P1000 ; Wait for bend completion

; Return to safe position
G0 Z10.0

; === BEND 29: 177.6° left ===
M6 S0.51 ; Feed wire 0.51mm
G4 P200 ; Wait for wire feed

; Position bending mechanism
G0 Z10.0 ; Safety height
G0 X15.78 Y8.69
G1 Z-7.67 F500

; Execute bend
M5 A177.6 R12.2 DL
G4 P1000 ; Wait for bend completion

; Return to safe position
G0 Z10.0

; === BEND 30: 178.6° left ===
M6 S0.50 ; Feed wire 0.50mm
G4 P200 ; Wait for wire feed

; Position bending mechanism
G0 Z10.0 ; Safety height
G0 X15.70 Y8.62
G1 Z-7.18 F500

; Execute bend
M5 A178.6 R20.8 DL
G4 P1000 ; Wait for bend completion

; Return to safe position
G0 Z10.0

; === BEND 31: 179.2° left ===
M6 S0.51 ; Feed wire 0.51mm
G4 P200 ; Wait for wire feed

; Position bending mechanism
G0 Z10.0 ; Safety height
G0 X15.61 Y8.54
G1 Z-6.69 F500

; Execute bend
M5 A179.2 R37.3 DL
G4 P1000 ; Wait for bend completion

; Return to safe position
G0 Z10.0

; === BEND 32: 179.7° left ===
M6 S0.51 ; Feed wire 0.51mm
G4 P200 ; Wait for wire feed

; Position bending mechanism
G0 Z10.0 ; Safety height
G0 X15.52 Y8.46
G1 Z-6.19 F500

; Execute bend
M5 A179.7 R84.7 DL
G4 P1000 ; Wait for bend completion

; Return to safe position
G0 Z10.0

; === BEND 33: 179.9° left ===
M6 S0.52 ; Feed wire 0.52mm
G4 P200 ; Wait for wire feed

; Position bending mechanism
G0 Z10.0 ; Safety height
G0 X15.43 Y8.37
G1 Z-5.69 F500

; Execute bend
M5 A179.9 R324.9 DL
G4 P1000 ; Wait for bend completion

; Return to safe position
G0 Z10.0

; === BEND 34: 179.7° left ===
M6 S0.51 ; Feed wire 0.51mm
G4 P200 ; Wait for wire feed

; Position bending mechanism
G0 Z10.0 ; Safety height
G0 X15.34 Y8.28
G1 Z-5.20 F500

; Execute bend
M5 A179.7 R87.2 DL
G4 P1000 ; Wait for bend completion

; Return to safe position
G0 Z10.0

; === BEND 35: 179.4° right ===
M6 S0.51 ; Feed wire 0.51mm
G4 P200 ; Wait for wire feed

; Position bending mechanism
G0 Z10.0 ; Safety height
G0 X15.25 Y8.19
G1 Z-4.70 F500

; Execute bend
M5 A179.4 R47.1 DR
G4 P1000 ; Wait for bend completion

; Return to safe position
G0 Z10.0

; === BEND 36: 179.1° right ===
M6 S0.52 ; Feed wire 0.52mm
G4 P200 ; Wait for wire feed

; Position bending mechanism
G0 Z10.0 ; Safety height
G0 X15.17 Y8.11
G1 Z-4.20 F500

; Execute bend
M5 A179.1 R31.7 DR
G4 P1000 ; Wait for bend completion

; Return to safe position
G0 Z10.0

; === BEND 37: 178.7° right ===
M6 S0.51 ; Feed wire 0.51mm
G4 P200 ; Wait for wire feed

; Position bending mechanism
G0 Z10.0 ; Safety height
G0 X15.09 Y8.03
G1 Z-3.69 F500

; Execute bend
M5 A178.7 R23.3 DR
G4 P1000 ; Wait for bend completion

; Return to safe position
G0 Z10.0

; === BEND 38: 178.4° right ===
M6 S0.51 ; Feed wire 0.51mm
G4 P200 ; Wait for wire feed

; Position bending mechanism
G0 Z10.0 ; Safety height
G0 X15.02 Y7.96
G1 Z-3.19 F500

; Execute bend
M5 A178.4 R17.7 DR
G4 P1000 ; Wait for bend completion

; Return to safe position
G0 Z10.0

; === BEND 39: 177.9° right ===
M6 S0.50 ; Feed wire 0.50mm
G4 P200 ; Wait for wire feed

; Position bending mechanism
G0 Z10.0 ; Safety height
G0 X14.96 Y7.91
G1 Z-2.70 F500

; Execute bend
M5 A177.9 R13.7 DR
G4 P1000 ; Wait for bend completion

; Return to safe position
G0 Z10.0

; === BEND 40: 177.2° right ===
M6 S0.52 ; Feed wire 0.52mm
G4 P200 ; Wait for wire feed

; Position bending mechanism
G0 Z10.0 ; Safety height
G0 X14.90 Y7.86
G1 Z-2.19 F500

; Execute bend
M5 A177.2 R10.5 DR
G4 P1000 ; Wait for bend completion

; Return to safe position
G0 Z10.0

; === BEND 41: 176.7° right ===
M6 S0.51 ; Feed wire 0.51mm
G4 P200 ; Wait for wire feed

; Position bending mechanism
G0 Z10.0 ; Safety height
G0 X14.87 Y7.84
G1 Z-1.68 F500

; Execute bend
M5 A176.7 R8.8 DR
G4 P1000 ; Wait for bend completion

; Return to safe position
G0 Z10.0

; === BEND 42: 177.4° right ===
M6 S0.50 ; Feed wire 0.50mm
G4 P200 ; Wait for wire feed

; Position bending mechanism
G0 Z10.0 ; Safety height
G0 X14.85 Y7.84
G1 Z-1.18 F500

; Execute bend
M5 A177.4 R11.5 DR
G4 P1000 ; Wait for bend completion

; Return to safe position
G0 Z10.0

; === BEND 43: 178.2° right ===
M6 S0.52 ; Feed wire 0.52mm
G4 P200 ; Wait for wire feed

; Position bending mechanism
G0 Z10.0 ; Safety height
G0 X14.85 Y7.86
G1 Z-0.66 F500

; Execute bend
M5 A178.2 R16.3 DR
G4 P1000 ; Wait for bend completion

; Return to safe position
G0 Z10.0

; === BEND 44: 178.7° right ===
M6 S0.52 ; Feed wire 0.52mm
G4 P200 ; Wait for wire feed

; Position bending mechanism
G0 Z10.0 ; Safety height
G0 X14.86 Y7.89
G1 Z-0.14 F500

; Execute bend
M5 A178.7 R21.9 DR
G4 P1000 ; Wait for bend completion

; Return to safe position
G0 Z10.0

; === BEND 45: 179.0° right ===
M6 S0.50 ; Feed wire 0.50mm
G4 P200 ; Wait for wire feed

; Position bending mechanism
G0 Z10.0 ; Safety height
G0 X14.87 Y7.93
G1 Z0.36 F500

; Execute bend
M5 A179.0 R28.2 DR
G4 P1000 ; Wait for bend completion

; Return to safe position
G0 Z10.0

; === BEND 46: 179.2° right ===
M6 S0.51 ; Feed wire 0.51mm
G4 P200 ; Wait for wire feed

; Position bending mechanism
G0 Z10.0 ; Safety height
G0 X14.90 Y7.97
G1 Z0.87 F500

; Execute bend
M5 A179.2 R35.7 DR
G4 P1000 ; Wait for bend completion

; Return to safe position
G0 Z10.0

; === BEND 47: 179.3° right ===
M6 S0.51 ; Feed wire 0.51mm
G4 P200 ; Wait for wire feed

; Position bending mechanism
G0 Z10.0 ; Safety height
G0 X14.92 Y8.02
G1 Z1.38 F500

; Execute bend
M5 A179.3 R45.0 DR
G4 P1000 ; Wait for bend completion

; Return to safe position
G0 Z10.0

; === BEND 48: 179.5° right ===
M6 S0.51 ; Feed wire 0.51mm
G4 P200 ; Wait for wire feed

; Position bending mechanism
G0 Z10.0 ; Safety height
G0 X14.96 Y8.08
G1 Z1.89 F500

; Execute bend
M5 A179.5 R57.8 DR
G4 P1000 ; Wait for bend completion

; Return to safe position
G0 Z10.0

; === BEND 49: 179.6° right ===
M6 S0.53 ; Feed wire 0.53mm
G4 P200 ; Wait for wire feed

; Position bending mechanism
G0 Z10.0 ; Safety height
G0 X14.99 Y8.14
G1 Z2.41 F500

; Execute bend
M5 A179.6 R78.8 DR
G4 P1000 ; Wait for bend completion

; Return to safe position
G0 Z10.0

; === BEND 50: 179.8° left ===
M6 S0.51 ; Feed wire 0.51mm
G4 P200 ; Wait for wire feed

; Position bending mechanism
G0 Z10.0 ; Safety height
G0 X15.03 Y8.20
G1 Z2.92 F500

; Execute bend
M5 A179.8 R129.6 DL
G4 P1000 ; Wait for bend completion

; Return to safe position
G0 Z10.0

; === BEND 51: 179.9° left ===
M6 S0.51 ; Feed wire 0.51mm
G4 P200 ; Wait for wire feed

; Position bending mechanism
G0 Z10.0 ; Safety height
G0 X15.06 Y8.26
G1 Z3.42 F500

; Execute bend
M5 A179.9 R422.6 DL
G4 P1000 ; Wait for bend completion

; Return to safe position
G0 Z10.0

; === BEND 52: 179.6° left ===
M6 S0.52 ; Feed wire 0.52mm
G4 P200 ; Wait for wire feed

; Position bending mechanism
G0 Z10.0 ; Safety height
G0 X15.10 Y8.32
G1 Z3.93 F500

; Execute bend
M5 A179.6 R78.3 DL
G4 P1000 ; Wait for bend completion

; Return to safe position
G0 Z10.0

; === BEND 53: 178.5° left ===
M6 S0.51 ; Feed wire 0.51mm
G4 P200 ; Wait for wire feed

; Position bending mechanism
G0 Z10.0 ; Safety height
G0 X15.14 Y8.38
G1 Z4.44 F500

; Execute bend
M5 A178.5 R18.9 DL
G4 P1000 ; Wait for bend completion

; Return to safe position
G0 Z10.0

; === BEND 54: 36.2° left ===
M6 S0.50 ; Feed wire 0.50mm
G4 P200 ; Wait for wire feed

; Position bending mechanism
G0 Z10.0 ; Safety height
G0 X15.16 Y8.44
G1 Z4.94 F500

; Execute bend
M5 A36.2 R0.3 DL
G4 P1000 ; Wait for bend completion

; Return to safe position
G0 Z10.0

; === BEND 55: 155.6° left ===
M6 S0.51 ; Feed wire 0.51mm
